/* XPM */
static char *d73d497abf634c21a875f7dd437cc7685WggBruWo1iJCoIH[] = {
/* columns rows colors chars-per-pixel */
"56 56 254 2 ",
"   c #3F382E",
".  c #53321C",
"X  c #6E381D",
"o  c #51322A",
"O  c #652F28",
"+  c #026018",
"@  c #19582C",
"#  c #195135",
"$  c #1B5C33",
"%  c #1A5738",
"&  c #1D5C3B",
"*  c #384D2A",
"=  c #2A4F32",
"-  c #224B38",
";  c #294E3B",
":  c #235435",
">  c #225B33",
",  c #24533B",
"<  c #2A543C",
"1  c #235B3C",
"2  c #2C5A3B",
"3  c #345638",
"4  c #086A26",
"5  c #18652C",
"6  c #187B2A",
"7  c #076A34",
"8  c #156533",
"9  c #1A6436",
"0  c #176A36",
"q  c #1D633A",
"w  c #1B6B3B",
"e  c #097938",
"r  c #1C7435",
"t  c #1B7A34",
"y  c #1B743C",
"u  c #1C7B3B",
"i  c #32742C",
"p  c #23633B",
"a  c #29653A",
"s  c #246C3C",
"d  c #366739",
"f  c #247435",
"g  c #257838",
"h  c #34773A",
"j  c #6B4C1F",
"k  c #4E4E2E",
"l  c #665826",
"z  c #795227",
"x  c #51702A",
"c  c #4C6A3C",
"v  c #716B29",
"b  c #0E5942",
"n  c #1A5845",
"m  c #245442",
"M  c #285946",
"N  c #305245",
"B  c #1A6744",
"V  c #1D6C42",
"C  c #177447",
"Z  c #1D7542",
"A  c #1E7A44",
"S  c #196B55",
"D  c #187758",
"F  c #256543",
"G  c #246B43",
"H  c #286947",
"J  c #316B44",
"K  c #237343",
"L  c #287646",
"P  c #377B49",
"I  c #256957",
"U  c #25775A",
"Y  c #1D6E67",
"T  c #177866",
"R  c #1D7976",
"E  c #267765",
"W  c #2E7167",
"Q  c #257874",
"!  c #7B7947",
"~  c #883B27",
"^  c #94541C",
"/  c #8C542F",
"(  c #A25D24",
")  c #856B2B",
"_  c #92772C",
"`  c #2B991E",
"'  c #18872B",
"]  c #189729",
"[  c #159C2A",
"{  c #1B9C2C",
"}  c #0B8F33",
"|  c #158932",
" . c #1B8D33",
".. c #1C833B",
"X. c #1C8B3A",
"o. c #1C9334",
"O. c #189737",
"+. c #149B34",
"@. c #1B9D34",
"#. c #1D933B",
"$. c #258A2D",
"%. c #348E28",
"&. c #269928",
"*. c #229C2B",
"=. c #248937",
"-. c #22823B",
";. c #348B36",
":. c #249433",
">. c #279735",
",. c #349B36",
"<. c #35993A",
"1. c #19A129",
"2. c #0EA436",
"3. c #17A134",
"4. c #29A62B",
"5. c #37AA2C",
"6. c #2DA333",
"7. c #2AA736",
"8. c #33AD34",
"9. c #39A53C",
"0. c #37A838",
"q. c #2EB238",
"w. c #3AB437",
"e. c #4D9130",
"r. c #479739",
"t. c #758D37",
"y. c #6A9935",
"u. c #45AA37",
"i. c #4EAC32",
"p. c #4CAE33",
"a. c #47B839",
"s. c #54BA39",
"d. c #5BBD3D",
"f. c #66A538",
"g. c #62B83C",
"h. c #78B03E",
"j. c #4DC23D",
"k. c #58C139",
"l. c #0F864B",
"z. c #1B9543",
"x. c #16895B",
"c. c #1D9756",
"v. c #288545",
"b. c #279A46",
"n. c #389945",
"m. c #278554",
"M. c #378855",
"N. c #259859",
"B. c #329755",
"V. c #19A446",
"C. c #19A55D",
"Z. c #2BA446",
"A. c #39A746",
"S. c #3DB341",
"D. c #26A458",
"F. c #3AA758",
"G. c #1A876B",
"H. c #128D72",
"J. c #189677",
"K. c #2F9369",
"L. c #258578",
"P. c #0FA970",
"I. c #19A977",
"U. c #28A868",
"Y. c #34A86D",
"T. c #2DAD71",
"R. c #38B379",
"E. c #47824A",
"W. c #4D9A48",
"Q. c #519451",
"!. c #49A946",
"~. c #58AA46",
"^. c #49B844",
"/. c #54B945",
"(. c #58B84A",
"). c #46AA58",
"_. c #5AAB5A",
"`. c #47B259",
"'. c #57BA56",
"]. c #66AA45",
"[. c #66B847",
"{. c #6BA95B",
"}. c #64B556",
"|. c #5AA862",
" X c #5DB665",
".X c #47B071",
"XX c #67B667",
"oX c #74B07C",
"OX c #4CC047",
"+X c #57C148",
"@X c #57C052",
"#X c #56C36B",
"$X c #828029",
"%X c #168787",
"&X c #0A968D",
"*X c #0C9391",
"=X c #169799",
"-X c #258A84",
";X c #22938E",
":X c #15AA8A",
">X c #1CB48C",
",X c #0BA992",
"<X c #16A797",
"1X c #0CB092",
"2X c #17B498",
"3X c #27A884",
"4X c #38A887",
"5X c #2AB587",
"6X c #36B689",
"7X c #26A998",
"8X c #27B898",
"9X c #34B694",
"0X c #0B9AA5",
"qX c #149CA4",
"wX c #09A3A7",
"eX c #16A4A7",
"rX c #0AB5A8",
"tX c #1AB9A8",
"yX c #0CA6B5",
"uX c #0DACBB",
"iX c #13A6B7",
"pX c #10ABBB",
"aX c #09BAB8",
"sX c #19BAB6",
"dX c #14BBBA",
"fX c #27B8A6",
"gX c #2EBBB1",
"hX c #47B68C",
"jX c #6CB58D",
"kX c #17C1BE",
"lX c #08AFC5",
"zX c #0CAEC4",
"xX c #0DB2C5",
"cX c #05B8C6",
"vX c #0ABCC4",
"bX c #05B5CC",
"nX c #0AB3CC",
"mX c #0CBDCA",
"MX c #15BDC4",
"NX c #05B6D3",
"BX c #09B6D1",
"VX c #05BBD5",
"CX c #09BCD3",
"ZX c #04BDDC",
"AX c #02BEE1",
"SX c #14C0C1",
"DX c #13C0CB",
"FX c #06C0D6",
"GX c #0AC0D4",
"HX c #05C1DC",
"JX c #09C2D9",
"KX c #12C1D3",
"LX c #02C2E4",
"PX c #00C4EA",
/* pixels */
"PXPXPXPXPXPXPXPXPXPXPXPXPXPXPXPXPXPXPXPXPXPXPXPXPXPXPXPXPXPXPXPXPXPXPXPXPXPXPXPXPXPXPXPXPXPXPXPXPXPXPXPXPXPXPXPX",
"PXPXPXPXPXPXPXPXPXPXPXPXPXPXPXPXPXPXPXPXPXPXPXPXPXPXPXPXPXPXPXPXPXPXPXPXPXPXPXPXPXPXPXPXPXPXPXPXPXPXPXPXPXPXPXPX",
"PXPXPXPXPXPXPXPXPXPXPXPXPXPXPXPXPXPXPXPXPXPXPXPXPXPXPXPXPXPXPXPXPXPXPXPXPXPXPXPXPXPXPXPXPXPXPXPXPXPXPXPXPXPXPXPX",
"PXPXPXPXPXPXPXPXPXPXPXPXPXPXPXPXPXPXPXPXPXPXPXPXPXPXPXPXPXPXPXPXPXPXPXPXPXPXPXPXPXPXPXPXPXPXPXPXPXPXPXPXPXPXPXPX",
"PXPXPXPXPXPXPXPXPXPXPXPXPXPXPXPXPXPXPXPXPXPXPXPXPXPXPXPXPXPXPXPXPXPXPXPXPXPXPXPXPXPXPXPXPXPXPXPXPXPXPXPXPXPXPXPX",
"PXPXPXPXPXPXPXPXPXPXPXPXPXPXPXPXPXPXPXPXPXPXFXfXDXPXPXPXPXPXPXPXPXPXPXPXPXPXPXPXPXPXPXPXPXPXPXPXPXPXPXPXPXPXPXPX",
"PXPXPXPXPXPXPXPXPXPXPXPXPXPXPXPXPXPXPXPXPXFXfXhXDXPXPXPXPXPXPXPXFXPXPXPXPXJXLXPXPXPXPXPXPXPXPXPXPXPXPXPXPXPXPXPX",
"PXPXPXPXPXPXPXPXPXPXPXPXPXPXPXPXPXPXPXPXGX9X4XmXPXPXPXPXPXPXPXMXhXDXPXPXmXhXMXPXPXPXPXPXPXPXPXPXPXPXPXPXPXPXPXPX",
"PXPXPXPXPXPXPXPXPXPXPXPXPXPXPXPXPXJXkXtX5XR.8XCXCXvXvXvXmXHXPXDX9X9XtXtX5X6XsXGXmXvXaXaXmXLXPXPXPXKXsXMXJXPXPXPX",
"PXPXPXPXPXPXPXPXPXPXPXPXPXPXPXPXLXfX X}.).2XaX3XG.x.c.N.U.2XFXPXMXF.~.}.U.dX2XI.c.z.b.B.3XMXPXPXDXhXoXjXgXPXPXPX",
"PXPXPXPXPXPXPXPXPXPXPXPXPXPXPXJX8X`.[.g.p.Z.c.v.g =.n.A.<.b.I.I.D.!.(.[.!.z.#.=.X.:.!.B.2XtX8X5X5X6XfXgXKXPXPXPX",
"PXPXPXPXPXPXPXPXPXPXPXPXPXPXHX8X#X/.d.k.s.(.!.6 $.<.~.].e.e.[.[.(./.(.^.(.@X9.:.>.D..X5XmXT.XXXXhXMXPXPXPXPXPXPX",
"PXPXPXPXPXPXPXPXPXPXPXPXPXJX8XF.&.8.4.8.6.6.9.9.6.e.t._ ) $Xh.p.4.7.9.,.,.,.u.!.>XaXsXfXT.!.~.R.MXPXPXPXPXPXPXPX",
"PXPXPXPXPXPXPXPXPXPXPXPXFX>X`.~.&.V.V.o.>.&.6.a.5.%.v ( ^ _ h.u.1.[ ] ' X.c.U.6XGXPXLX8X|.|..XSXPXPXPXPXPXPXPXPX",
"PXPXPXPXPXPXPXPXPXPXPXHX8X`.~.!.b.1XvX1XN.' &.&.4.%.) ( ^ v ].w.{ [ *.:.P.cXHXHXPXPXmX7X4XfXFXPXPXPXPXPXPXPXPXPX",
"PXPXPXPXPXPXPXPXPXPXJX8X).}.(.~.n.:XHXVX:Xv.,.5.5.r.t.) v x p.4.1.1.[ Z.1XLXHXmXdXdXMXtX7XdXLXPXPXPXPXPXPXPXPXPX",
"PXPXPXPXPXPXPXPXPXLX8X X].[.[.(.(.F.tXJXrXF./.k.s.d.f.].e.%.&.1.[ 3.1.*.P.VX>X X_..XMXmX7X7XdXPXPXPXPXPXPXPXPXPX",
"PXPXPXPXPXPXPXPXHX8XY.).R.8X8XY.~.W.F.3XP.!.d.k.k.k.k./.w.8.1.{ +.@.{ *.b.C.A.(.W.n.Y.Y..X7XZXPXPXPXPXPXPXPXPXPX",
"PXPXPXPXPXPXPXHXtXhX.X8XFXPXPXdXhX X|.).,.p.s.k.k.s.k.s.OXS.*.] o.#.o.@.Z.^.^.(.i L Q.{.{.9XPXPXPXPXPXPXPXPXPXPX",
"PXPXPXPXPXsX6XR.R.tXKXFXmXsXdXmXDXsXU.<.p.k.k.k.a.5.5.u.^.9.' } + e o.Z.q.q.6.>.g A x.B.}.9XPXPXPXPXPXPXVXpXeXeX",
"PXPXLXJXsX.X[.[.`.dXFXmX:Xm.B.I.vXvXP.,.s.j.a.a.8.*.&.&.9.<.;.l.7 e $.S.8.{ ] ' t Z x.J..XR.aXVXHXZXVXbXqX-X-X=X",
"PXmX8XR.).].[.[.~.).Y.N...$.A.A.D.F.!./.a.5.` 4.7.o.:.6 i e.Q.P e -.$.6.7.{ >.X.-.y C H.<XU.Q.K.L.G.T D E L.eXVX",
"aXI.).W.W.Q.W.W.!.!.<.;.:.:.0.S.,.!./.a.0.5.5.5.*.| -.i k l ! E.-.#.{ { ]  . .X...r L D ,X:XY.U p q G J E =XnXVX",
"T.). XW.r 5 s f ' 6 r.~.r.%.&.0.^.OXOX8.6.^.(.(.7.' g c / / z x ;.+.3.@.o. .6 ..u y K K m.,XuXG.C G H U =XZXxXeX",
"sXfX8XT.L 0 5 g  .$.e.t.v x e.u.8.w.8.4.>.,.!.'.n.6 f c z ~ X k g O.@.+. .X...y V V q p a D H.S S T T Q %XuXbXNX",
"PXPXPXxX7XJ.G.N.#.;.v ) z z y.p.&.1.[ 1.] ' >.`.n.=.g d l X . * g  . .| | X.-.Z & n % $ @ @ , m n *X*XI M Q zXPX",
"PXPXPXPXLXAXZXaXP.n.v / X j y./.w.4.1.] ] ] { 7.0.9.>.$.x x i h f ..X.X.=.=.r 8 n n m 1 p s G & # % b : < ; Y =X",
"PXPXPXPXHXJXVXaXP.n.v z j l f.d.+X8.] ] @.[ 1.1.8.S.7.*.>.>.:.=.g g -.-.-.f 5 $ M n n F G K G q q 1 1 # , N R =X",
"PXPXPXaXI.C.N.F.!.g.f.y.y.y.g.d./.6.' | | +.[ 1.1.7.{ { @.+.+.O.=.-.L L s $ @ $ # & B Z K w q F G F F , I Q zXPX",
"mXvXrXC.7.7.9.^.+Xd.g.g.s.p.p.a.@X,.6 4 | #.@.[ [ 3.[ { 3.2.2.3.:.h d N 3 : > p 1 G V V V q % 1 H H H %XqXnXPXPX",
"J.c.#.9.^.6.6.^.j.j.+X/.9.&.*.0.'.;.5 r ..#.#.@.3.3.{ { 3.2.[ ] ;.x k o   ; 1 G J a $ $ % % , 1 p F T NXPXPXPXPX",
"v.z.{ 7.8.4.*.8.w.0.9.,.$.'  .:.<.<.E.P g -.=.X.O.|  .o.O.+.@.:.i k O O o 3 p p D B @ 1 , , < , % F I 0XAXPXPXPX",
"C.#.@.{ 4.&.4.{ :.$. .t 5 8 r t 6 n.|.P c d f y u u u u X.z.:.=.d * o o = J p B wXwX% < - - < - % , N W zXPXPXPX",
"vXP.o.7.a.w.w.*.O.+ 4 K q $ y g t v.E.c k k 2 s q 9 w L v.u 6 5 > 3 k 3 a L G p S S - ; ; N Y =X0XY M Q zXPXPXPX",
"PXaXZ.u.+Xa.w.8.b.7 @ s 5 8 K K y s 3 k O . * d s 9 w s y 0 5 5 $ a J J L K G G 1 < < m Y %XiXZXAXyX%X-XzXPXPXPX",
"PXtX`./.(.u.4.w.!.n.h 5 0 g L G 9 > 3 k O . * a s s 0 8 8 9 q p @ s L K L G q & # , , R NXPXPXPXPXPXzXqXnXPXPXPX",
"tXU.).F.n.%.4.q.^.@X<.4 u Z F M # 1 < I N   < G K K w 8 8 V Z Z 0 y w 7 & J 1 , , , M =XPXPXPXPXPXPXPXnXnXVXPXPX",
"XX.XY.2X,X| { 1.8.OX6.' r w B % : 2 2 H.%Xm 1 H L K Z Z K K Z A A Z C &X0XL.E I I I Q yXPXPXPXPXPXPXPXPXBXxXAXPX",
"fXfXdXaXP.' +.[ 3.w.0.<.f p V B p a 2 n b - m F F p w A Z w w V Z Z p H.bXVXVXNXnXzXzXnXVXPXPXPXPXPXPXPXPXNXPXPX",
"PXPXHX,XB.=.| #.o.b.<._.h p q L G p : ; m m m , : $ w A Z w 9 q K K G U yXPXPXPXPXPXPXVXpXVXPXPXPXPXPXPXPXPXPXPX",
"PXLXrXG.v.l.e -.N.,XI.M.a > 9 w A 8 : ; ; m m m 1 G y A Z w $ $ $ L G B *XPXPXPXPXPXPXPXAXPXPXPXPXPXPXPXPXPXPXPX",
"PXVX-Xm.J.,Xx.v.J.ZXZX<XI : > q C 8 1 m - ; - # F K y y V $ p q q B B q T lXPXPXPXPXPXPXPXPXPXPXPXPXPXPXPXPXPXPX",
"PXCX7XeXbXwXx.m.&XPXPXAXqXE E %XlX%XE %X*Xm , 1 q K L U wX&XH H G &X*XE I %XVXPXPXPXPXPXPXPXPXPXPXPXPXPXPXPXPXPX",
"PXPXmXVXPXNX&XG.=XPXPXPXZXxXpXVXPXVXeXyX0XM : & w w D =XbXbXqXU E lXPXuXL.L.zXPXPXPXPXPXPXPXPXPXPXPXPXPXPXPXPXPX",
"PXPXPXPXPXPXVX<XeXLXPXPXPXPXPXPXPXPXZXqXE I 1 H p S uXZXuXbXLXeXL.uXPXPXnX=XzXPXPXPXPXPXPXPXPXPXPXPXPXPXPXPXPXPX",
"PXPXPXPXPXPXPXVXxXnXLXPXPXPXPXPXPXAXuX-XQ =X%XH 1 Y NXPXZXZXPXZXuXeXnXPXPXBXuXnXPXPXPXPXPXPXPXPXPXPXPXPXPXPXPXPX",
"PXPXPXPXPXPXPXPXVXsXCXPXPXPXPXPXPXzX=X;XiXAXVX=XE R NXPXPXPXPXPXPXuXeXZXPXPXnXeXZXPXPXPXPXPXPXPXPXPXPXPXPXPXPXPX",
"PXPXPXPXPXPXPXPXPXZXPXPXPXPXPXZXpXxXCXZXAXPXPXVXqX;XVXPXPXPXPXPXPXLXVXPXPXPXPXZXPXPXPXPXPXPXPXPXPXPXPXPXPXPXPXPX",
"PXPXPXPXPXPXPXPXPXPXPXPXPXPXPXZXiXBXPXPXPXPXPXPXVXiXnXPXPXPXPXPXPXPXPXPXPXPXPXPXPXPXPXPXPXPXPXPXPXPXPXPXPXPXPXPX",
"PXPXPXPXPXPXPXPXPXPXPXPXPXPXPXPXAXPXPXPXPXPXPXPXPXVXpXpXPXPXPXPXPXPXPXPXPXPXPXPXPXPXPXPXPXPXPXPXPXPXPXPXPXPXPXPX",
"PXPXPXPXPXPXPXPXPXPXPXPXPXPXPXPXPXPXPXPXPXPXPXPXPXPXVXnXPXPXPXPXPXPXPXPXPXPXPXPXPXPXPXPXPXPXPXPXPXPXPXPXPXPXPXPX",
"PXPXPXPXPXPXPXPXPXPXPXPXPXPXPXPXPXPXPXPXPXPXPXPXPXPXPXPXPXPXPXPXPXPXPXPXPXPXPXPXPXPXPXPXPXPXPXPXPXPXPXPXPXPXPXPX",
"PXPXPXPXPXPXPXPXPXPXPXPXPXPXPXPXPXPXPXPXPXPXPXPXPXPXPXPXPXPXPXPXPXPXPXPXPXPXPXPXPXPXPXPXPXPXPXPXPXPXPXPXPXPXPXPX",
"PXPXPXPXPXPXPXPXPXPXPXPXPXPXPXPXPXPXPXPXPXPXPXPXPXPXPXPXPXPXPXPXPXPXPXPXPXPXPXPXPXPXPXPXPXPXPXPXPXPXPXPXPXPXPXPX",
"PXPXPXPXPXPXPXPXPXPXPXPXPXPXPXPXPXPXPXPXPXPXPXPXPXPXPXPXPXPXPXPXPXPXPXPXPXPXPXPXPXPXPXPXPXPXPXPXPXPXPXPXPXPXPXPX",
"PXPXPXPXPXPXPXPXPXPXPXPXPXPXPXPXPXPXPXPXPXPXPXPXPXPXPXPXPXPXPXPXPXPXPXPXPXPXPXPXPXPXPXPXPXPXPXPXPXPXPXPXPXPXPXPX"
};
