/* XPM */
static char *_70c9c7434f74a1393877c81bd114fc4qE9hEI8kt0ljuIP0[] = {
/* columns rows colors chars-per-pixel */
"144 256 8 1 ",
"  c None",
". c black",
"X c #BE6400",
"o c #777777",
"O c #EF9600",
"+ c #E7DBCA",
"@ c #E7E4DF",
"# c white",
/* pixels */
"                      @@@@@@                        ",
"                      o#@@o#                        ",
"                      .o@@.o                        ",
"                      @@OO@@                        ",
"                      @@OO@@                        ",
"                    ++++##++++                      ",
"                    ++++##++++                      ",
"                  ++##++##++##++                    ",
"                  ++##++##++##++                    ",
"                  ++##++##++##++                    ",
"                  ++##++##++##++                    ",
"                    ++######++                      ",
"                    ++######++                      ",
"                      ++++++                        ",
"                      ++++++                        ",
"                      XX  XX                        ",
"                      XX  XX                        ",
"                      OO  OO                        ",
"                      OO  OO                        ",