/* XPM */
static char *xpm_[] = {
/* columns rows colors chars-per-pixel */
"56 56 221 2 ",
"   c #001D00",
".  c #071800",
"X  c #1A1A02",
"o  c #111F00",
"O  c #1B1714",
"+  c #241901",
"@  c #341E0C",
"#  c #391E11",
"$  c #0F2600",
"%  c #122301",
"&  c #1C2101",
"*  c #142E04",
"=  c #143A01",
"-  c #1A3009",
";  c #1E2B11",
":  c #262A0B",
">  c #33210D",
",  c #262717",
"<  c #3A2215",
"1  c #3E331F",
"2  c #2D3C0D",
"3  c #4B321E",
"4  c #41251A",
"5  c #5E3926",
"6  c #3E5300",
"7  c #2E4811",
"8  c #3D5B1F",
"9  c #357F02",
"0  c #355A23",
"q  c #3B432C",
"w  c #464A0F",
"e  c #55500C",
"r  c #467F0E",
"t  c #447E14",
"y  c #457C1C",
"u  c #4B7A1A",
"i  c #517B1B",
"p  c #5A791B",
"a  c #546E0E",
"s  c #69761A",
"d  c #59472D",
"f  c #574836",
"g  c #5B5438",
"h  c #654836",
"j  c #6D5435",
"k  c #4D7D22",
"l  c #4F7B2A",
"z  c #4A762B",
"x  c #527B22",
"c  c #56792B",
"v  c #536F3E",
"b  c #4C7834",
"n  c #54773A",
"m  c #536A26",
"M  c #607D29",
"N  c #6D732B",
"B  c #5F4E46",
"V  c #755846",
"C  c #695145",
"Z  c #506A46",
"A  c #77634B",
"S  c #72774F",
"D  c #7B6B55",
"F  c #70645D",
"G  c #7D6A5C",
"H  c #7A6958",
"J  c #6D735B",
"K  c #98583C",
"L  c #8F7C2F",
"P  c #906038",
"I  c #977C36",
"U  c #947C22",
"Y  c #946847",
"T  c #836B52",
"R  c #82675D",
"E  c #8B725A",
"W  c #887458",
"Q  c #9A6C54",
"!  c #AF6D4B",
"~  c #AC6C54",
"^  c #8A7464",
"/  c #907B6A",
"(  c #358503",
")  c #3D8603",
"_  c #3E8D04",
"`  c #3E840B",
"'  c #3E8C0A",
"]  c #368805",
"[  c #3D9004",
"{  c #3D900B",
"}  c #3D8C12",
"|  c #3F8610",
" . c #438605",
".. c #418C05",
"X. c #43860B",
"o. c #49840C",
"O. c #408C08",
"+. c #498D0C",
"@. c #4A8907",
"#. c #44910C",
"$. c #49910B",
"%. c #458515",
"&. c #4C8617",
"*. c #448A13",
"=. c #4A8A14",
"-. c #44851B",
";. c #4B831C",
":. c #4A8C1A",
">. c #52811B",
",. c #56861A",
"<. c #449414",
"1. c #4E8525",
"2. c #4D8923",
"3. c #4C832A",
"4. c #478A29",
"5. c #528323",
"6. c #5C8D22",
"7. c #588C2C",
"8. c #56882A",
"9. c #5A8839",
"0. c #599333",
"q. c #60862F",
"w. c #668B35",
"e. c #669236",
"r. c #649A2A",
"t. c #5E8141",
"y. c #67964B",
"u. c #73994D",
"i. c #7B9E42",
"p. c #689353",
"a. c #739B50",
"s. c #799D56",
"d. c #778458",
"f. c #7AA557",
"g. c #7AA557",
"h. c #77A068",
"j. c #8C902F",
"k. c #95932D",
"l. c #948B31",
"z. c #8F8142",
"x. c #8C8E55",
"c. c #83A858",
"v. c #82A94C",
"b. c #9D8677",
"n. c #8D907D",
"m. c #9E927A",
"M. c #A7846A",
"N. c #A88B76",
"B. c #A59278",
"V. c #B28474",
"C. c #97B575",
"Z. c #B9AC61",
"A. c #AEA77D",
"S. c #CFAB4D",
"D. c #A9C46C",
"F. c #A8C97A",
"G. c #EDC65D",
"H. c #D6C478",
"J. c #EAC963",
"K. c #8D8D83",
"L. c #998C86",
"P. c #A89A81",
"I. c #A98B80",
"U. c #A7A583",
"Y. c #B3A688",
"T. c #AEA890",
"R. c #B8AE96",
"E. c #BAB49A",
"W. c #AAB48E",
"Q. c #BEB1A0",
"!. c #C49E91",
"~. c #C1AF99",
"^. c #C1B29B",
"/. c #C3B7A3",
"(. c #ABC887",
"). c #BBCF9C",
"_. c #BACA8C",
"`. c #BEC2A1",
"'. c #C9D584",
"]. c #C3D49A",
"[. c #C8CA8F",
"{. c #FFF09F",
"}. c #C6C8A8",
"|. c #C4D3A5",
" X c #DBCBB5",
".X c #D6CCB9",
"XX c #D8D1BE",
"oX c #D5C5AE",
"OX c #E4CFB7",
"+X c #E3CDBA",
"@X c #E5D5BC",
"#X c #CBEDA0",
"$X c #DDFFA4",
"%X c #CFE3B0",
"&X c #CCF0B0",
"*X c #DFFDBD",
"=X c #D7FDB5",
"-X c #CDF9AC",
";X c #E6EFAE",
":X c #FEFFBD",
">X c #F2F6BB",
",X c #CBDBC0",
"<X c #E0CEC2",
"1X c #E7D6C8",
"2X c #F7D8C7",
"3X c #E3DFD6",
"4X c #EBE0CC",
"5X c #E2FFC3",
"6X c #EBFFCA",
"7X c #FFFFC3",
"8X c #FEFFCD",
"9X c #F7FFCD",
"0X c #E7E5D2",
"qX c #EDFED3",
"wX c #EAFFD5",
"eX c #F3FFD7",
"rX c #F2FFDC",
"tX c #FDF8D9",
"yX c #F6E5D5",
"uX c #F4FEE2",
"iX c #FBFAE9",
/* pixels */
"O.O.O.O.O.O.O.O.O.O.O.O.O.O.O.O...O.O.O.O...O.O.O...O.O.O.O.O.O.O.O.O.' O.O.O.O.O...[ O...O.' O...O.O.O.' O.O.O.",
"O.O.O.O.O.' ..O.O.O.O.' O.O.O...[ O.O.O.O.O.O.' [ ..O.O.O.' O.O.O.O.O.O.O.O.O.' O.O.O.O.O.O.O.O...O.O.O.O.O.O.O.",
"O.O.O.O.O...O.O.O.O.O.O.O.O.O.' ' O.O.O.' O.O.O.O.O.O.O.' O.O.O.O.O.....O.O.O.O.O.O.O.O.O.O.O.O.[ O.O.O.O...O.O.",
"' O.O.O.O.O.O.' O.O.O.O.O.O.O.O.O.O.O.O...O.O.O.O.O.O.O...O.O.O.O.[ ..' O.O.O.O.O.O.O.O.O.' O.O.O.O.O.O.O.' O.O.",
"O.O.O.[ O.O...O.' ..O.[ O.O.O.O.O.O.O...[ O.' O.O.O.O.O.O.O.O.O.O.O.O.O.O.O.O.O.O.O.' O.O.O.O.O.O.O.O...O.O.[ O.",
"O.O.O...O.' O.O.O.O.O...O.O.O.O.O.O.O.O.O.O.O.O.O.O.O.O...[ O.O...' O.O.O.O.O.O.O.O...O.O.O.O.O.O.O.O.' O.O.O.O.",
"O.O.' ..O.O.O.O.O.O.O.O.O.O.O.O.O.O...O.O.O.O.O.O.O.' O.O.O.O.O.O.O.O.O.O.O.O.O.' O.O.O...O.O.O.' ..O.O.O.O.O.O.",
"O.O.O.O.O.O...' O.O.O.O.O.' O.[ O.O.' O.O.O.O.O...' O.O.O.O.O.O.O.O...' O.O.O.[ O.O.O.O.[ O.O.O.O.O.O.O.O.O.O.O.",
"O.O.O.' O.O.O.O.O.O.O.O.' O.O...O.O.O.O.O.O.O.O.O.O.O.O.O.O.O.O...' O.O...' O.O.O.O.O.O.O...O.O.O.O.' ..O.O.O.O.",
"O.O.O.O.O.....[ O.O.O.O.O.O.O...O.O.O.O.O.O.O.O...O.O.O.O.' O.O.O.O.O.O.O.O.O...O.' O.O.O.' O.O.O.O.....O.' O...",
"O.O.O.O.O.' O.O.O.O.O.O.O...' ..O.O.O.O.O.O.O.O.[ O.O.O.O.' O.O.O.O.O.O.O.O.' O.O.O.O.O.O.O.O.O.O.O.[ O.O.O.O.O.",
"O.O.O.O.O.O.O.O.O.O.O.' O.O.O.O.O.O.O.O.O.O.O.O.O.O.O.O.O...O.O.O.O.O.O.O...O.O.O.O.O.' ..O...' O.O.O.O.O.O.O.O.",
"O.O.O.O.O.O.O.O.O.O.O.O.O.O.O.O.O.O.O...O.O...O.O.O.O.O.O.[ O.O.O.O.O.O.O.' O.O.O.O.O.' O.O.O.O.O.O.O.O.' O.O.O.",
"O._ O.[ O.O.O.O.O.O.O.[ O.O.O.O.O.O.' O.O.O.O.O.O.O.O.O.O...O.O.O.O.O...O...O.O.O.O.O.O...' O.O.' O.O.O.O.O.O.O.",
"O.O.O...O.O.O.O.O.O.O...O.O.O.O.O.O.O.O.O.O.O.O.O.O.O.O.O.O.O.O.O.O.O.O.O.O.O.O...' ..O.....' ' O.O.O.O.O...[ O.",
"O.O.O.O.O.O.O.' ..' O.O.O.O.O.' O.O.O.O.O.O.O.O.O.O.' O.' O.O.O.O.O.O.O.O.O.' ..O.O.O.O.' ' ' ' O.O.O.O.O.O.O.O.",
"O.' O...O.O.O.O.O.O.' ..O.O.' O._ O.O.' .. .....@. .} } } ' ' *. .+._ #.` *.O.O.O.O.O.O.{ { ' ' O.O.O.O.[ ..O.O.",
"..O.O.O.O.O.O.O.O.O.O.O.O.O...O...[ *.O...' O...@.=.-.4.0.0.7.7.8.t O.+.*.O.O.' O.O.O.O.' [ [ ' O.' O.O.O.O.O.' ",
"O.O.O.O.O.O.O.O...' O.O.O.O.O.O.' O.} O.' _ { { @.r f.wXrXuXuXrXwX9.*.] ] { ' ' O.O.X.+._ [ ..O...O.O.O.O.O.O...",
"O.O.' O.O.O.[ O.O.O.O.O...' O.....' *.O.' [ ] { X.e.&X$ o % % $   wXy ] ' _ _ O. .*.O.O..._ ..O...O.O.O.O.O.O.O.",
"O.....{ O.O.O.O.O.[ O.O.O...' [ _ _ ' O.X.+.X.&.9.5X= p.s.f.u.u.h.$ -X4.] [ [ _ O.+.O.O.*.' X.O.' O.O.O.O.O.O.O.",
"' ..O.O.' ..O...O...O.O.O.O.O..._ _ O.X.o.%.X.;.=X= p.l z u y k z p.7 (.o._ [ [ O.o.o.+.O.O.O.O.O.O.O.O.O.' O.O.",
"' O.O.O.O.O.O.' O.O.O.O.O.O.O.' _ ' ' O.O._ O.:.qX* n c k u 1.y l t.7 ].5.X.{ { O.......' ' O...O.O.' ..O.O.O.O.",
"O.O.O.O.O.O.O.O.O.O.O.O.O.O.O.O.' ' O.*.O._ [ :.qX- v n 9.1.y k i M 2 ].i &.] '  .o.....O...' ....O.O.O.O.O.O.O.",
"O.O.' ....O.O.O.O.O.O.O...' O.O...O. ...#.*.] 2.qX; Z 0 p.b l p s s e [.w.i } -.@......._ _ _ ' [ O.O.O.O.O.O.O.",
"..O.O.O.[ O.O.O.O.O.O.O.O.O...O...+. ...+.( <.1.rX; Z   0 z a j.k.l.U Z.D.>.2.` @. .O.' _ _ _ ' ' O.O.O.O.O.' ..",
"O.O.O.O.O.O.O.O.O.' O.O.O.' O.O. .O.[ [ ] { ' ;.eX- b y.7.p k.J.G.J.{.H.H.i.%.:.O...' ' ' O.' ' O.O.O.O.O.' O.O.",
"O.' ..O.O.O.O.O.O.O.O.O.O...O.O.O.O.[ { ' } *.8.rX- b 3.u a j.S.S.S.S.Z.v.$X6.` O.O.' [ [ ' o.O.O.O.O.O.O...O.O.",
"O.O.O.O.O.O.O.O.O.' O.O.O.O.O.O.....O.X.*.;.3.t.iX* 0 z u p 6 j.l.I I Y '.i.=.O.' [ _ [ [ ' ' @.O.O.O.O.O.' O.O.",
"O.O.O.O.' O.O.O.O.O.O.O.O.O.O.O.O.' O.X.>.#X6XrXn.iX- 0 c c m 7 w + 7X7XD.i =.' _ _ _ [ [ ' O.O.O.O.' O.O...O.O.",
"O.O.O.O.' O.O.O.O.O.O.O.O.O.O.O.O.] *.1.(.d.J F iXK.%XJ rXiXiXtXX eXe.r.,.X.+...O.O.O.O.' { O.X.O.O.O.O.O.O.....",
"O.O.[ ....O.O.O.O.O.O.O.O.' O.O.O.*.*.f.W.XX0X1XL.3X3Xq F F F F O iX3.' O.#.) +. .O.O.O.' } O.O.O.O.O.O.O.O.O.[ ",
"O.O.O.O.[ O.O.O.O.O.O.O...O.O.O.X.%.0.(.E.1XyX1X/./.T.g A j A f , uXb *._ _ [ X.O.O.' ' O.*.O.O.O.O.O.O.O...O.O.",
"' O.O.O...O.O.O.O.O.O.O.' O.' ..X.=.u.|.}.<XR./.yXB.L.m.W W G C < R.c.-.' [ ( #.' O...' O.X. ...O.O.O.O.O.O.O.O.",
"_ O.O.O.O.O.O.O.O.O.O.O.O.O.O.O.) =.a.|.^. X^ / OXoXXXiXB.T ^ R B : =X-.' #.' ..O.O.' ' O...O.O.O.O.O._ O...[ O.",
"O.O.O.O.O...' O.O.' O.O.O.[ ...._ %.g.|.^.b.2X<XOX XXX.XyXR A ^ G X 5Xy =...O. .*.O.*.' O...O.O.O.O.O.O.O.O.O.O.",
"O.O.O.O.O.O.O.O.O.O.O.O.O.O.O.' #.' g.|.~.4 T OXOX X X.X1XE E T ^ X *X3.%.) ..*.O.O.' O.....O.O.O.O.O.O.O.O.O.O.",
"O.O.O.O.O.O.O.O.O.O.' O.O.O.....( *.g.|.B.4 E A +XoX@X+X/ R E T f & *Xy =.+. .X.X.O.O.O.O...' O.O.O.O.O.O.O.O.O.",
"O...[ O.O.O.O.O.O.O.O.O.O.O.[ O.' *.y.).A.Y.+ D G H D D ^ 4 f d f . =X;.*.X.+. .O.O.O.' O.O.O._ _ O.O.O.' O.O.O.",
"O.O.O.O.O.' O.O.O.O.O.O.O.O.O.' ' ` 1.(.A.P.R.+ > @ @ # # 5 f f % rX7.=.O.X.O.=.....O.O.O.O.......O.O.O.O.O.O.[ ",
"..O.O.' O.O.O.O.O.O.O.O.O.O.O.O.O.O.&.w.].x.Y.B.N.N.N.N.V f d : %Xa.;.*.' #...........O.X.X.#.' O.O.O.O.' ..O...",
"O.O.O...O.O.O.O.' O.O.O.O.O.' O.' ) @.>.g._.x.M.V.V.N./ d 3 1 A.C.8.*.O.' ..O.........O.X.*.O._ O.O.O.O.O.O.O.O.",
"O.[ O.O.O.' O.O...O.O.[ O.O.O..._ $.@.o.i F.A.Q ~ ~ !.I.h 5 R }.w.y *.' ) [ _ _ [ [ ....X.X.O.O.O.O.O.O.O.O.' O.",
"O.O.O.O.O.O.O.O.O.O.O...O.O.O._ _ _ o. .+.i 8XY ! K 2XiXV.j 1XS x | { _ _ [ _ ..[ ..O...+.O.O.' O.O.O.[ O.O...O.",
"O.O.O.O.O.O.O.O.O.O.O.O.O.O.O.' { ' *.O.*.i >Xj P P W tX/ h h 9Xu +.+._ ' [ _ O.' O.O.O.O.X.O.O.O.O.O...O.O.O.O.",
"O.O.O.O.O.' ..[ O.O.O.O.O.O.O.' ' _ ' ` *.>.q.:X7X7X;XN [.8X8XM ;.O._ _ O.O.' O.O.O.X.O.+. .O.' ' O.O.O.' O.O.O.",
"O.' O.O.O...O.O.O.' O.O.[ ..O.O.#.( #.#.( *.=.,.6.,.6.>.8.q.6.o.O...) _ O.O.O.O.O...O.o.+.X.[ [ ..O.O.O...O.O.O.",
"O.O.O.O.O.O.O.O.O.O.O.O.O.O.O.O.' [ ) ' #.) ( O.=.+.) =.%.%.+......._ [ O.' *.O...[ O.O.%.O.' _ ' O.O.[ ..O.O.O.",
"..O.....[ O.O.O.O.O.O.O...[ O.O.O._ ..[ O.O.' O.O.O.....X.+.O.O.O.O.....O.O.O.O.O...[ O.O.O.O.O.O.O.' ..O.O.O.O.",
"O.O.' O.O.O.O.O.' O.O...O.O.O.' O.O.O.O.O.O.O.O...' O.O.O.' ' O.O.O.O.O.O.O.O.O.O.O.O.O.O.O.O.O.O.O.O.O.O.O...' ",
"O.O.O.O.O.O.O.O.O...O.' O.O.O.O.O.O.O.O...O.O.O.O.O.O...O.O.O.O.O.O.O.O.O.O.O.O...O.O.O.O.O.O.O.O...O.O.' O.O.O.",
"' ..O.O.O.O.O.O.O.O.O.O.O.O.O.O.O.O.O.O.' O.O.O.O.O.O.' O.O.O.O.O.O...O.O.O.O.O.O.' O.O.O.O.O.O.O.' O.O...O.O.O.",
"O.O.O.O.' O.O.O.O.O.O.O.O.O.O.O.O.O.O.O.O.O...O.O.O.O.O.O...O.O.O.O.O.O.O.O.O.O.O.O.' ..O.O.O.O.O.O.O.O.O.O.O.O.",
"O.O.O.O.O.O.O.O.O.O.O.O...O.O.O.O.O.O.O.O.O.' O.O.O.O.O.O.' O.O.O.' O.O.O.O.O.O...O.O.O.O.O.O.' O.O.O.O.O.O.O._ ",
"O.O.O.O...' O.O.O.O.[ ..' O.O.O.O.O.O.O.O.O.O.O.O.O.O.O.O.O.O.O.O.O.O.O.O.O.O.O.O.O.O.O.O...O.O.O.O.O.O...O.O.O.",
"O.O.[ ..O.O.O.O.O.O.O.O.O.O.' O.O.O.O.O.[ O...O.O.O.O.[ O.O...' O.O...' O.O.O.O.O.' ..O.O.' O.O.' O.O.O.[ O.O.O."
};
