/* XPM */
static char *e40a82801f464780898756481a2f374d7yFTNpnVoQqv9QBj[] = {
/* columns rows colors chars-per-pixel */
"56 56 227 2 ",
"   c #5F2B0D",
".  c #5B2A14",
"X  c #5B3515",
"o  c #5C3B15",
"O  c #7B2A02",
"+  c #62330F",
"@  c #662E13",
"#  c #782618",
"$  c #633319",
"%  c #673919",
"&  c #76361C",
"*  c #7E2C23",
"=  c #653A25",
"-  c #693E26",
";  c #7B3126",
":  c #7E3F30",
">  c #56460B",
",  c #5B4614",
"<  c #5B5915",
"1  c #5A5D14",
"2  c #60460E",
"3  c #64531B",
"4  c #6B5E1F",
"5  c #55630F",
"6  c #526B0F",
"7  c #4D720E",
"8  c #4A7C0D",
"9  c #586313",
"0  c #4E7C11",
"q  c #567513",
"w  c #64751A",
"e  c #67462A",
"r  c #7D402B",
"t  c #735F27",
"y  c #794B3E",
"u  c #705632",
"i  c #726422",
"p  c #7E5146",
"a  c #822C02",
"s  c #883205",
"d  c #983E0C",
"f  c #8B2B17",
"g  c #862E1C",
"h  c #902B1E",
"j  c #8E3E1F",
"k  c #933719",
"l  c #9A3C1F",
"z  c #A13E18",
"x  c #B33D1F",
"c  c #892D2A",
"v  c #883523",
"b  c #843D2C",
"n  c #893928",
"m  c #9D3621",
"M  c #923B24",
"N  c #993B25",
"B  c #833E33",
"V  c #8D3833",
"C  c #BF2E25",
"Z  c #A43B24",
"A  c #A6382C",
"S  c #B63D28",
"D  c #C12E1D",
"F  c #C02C2A",
"G  c #C43626",
"H  c #C93C37",
"J  c #D23C3C",
"K  c #92451E",
"L  c #9E401D",
"P  c #95541D",
"I  c #A74A00",
"U  c #A54709",
"Y  c #AE5208",
"T  c #B3550A",
"R  c #A6461A",
"E  c #A4491B",
"W  c #A8511A",
"Q  c #B55A17",
"!  c #B3551A",
"~  c #BC5B19",
"^  c #BE6418",
"/  c #8B492B",
"(  c #944123",
")  c #9C4123",
"_  c #94422B",
"`  c #9D442C",
"'  c #984F2F",
"]  c #87562A",
"[  c #95562D",
"{  c #9C592F",
"}  c #844133",
"|  c #864138",
" . c #9D4433",
".. c #964936",
"X. c #825533",
"o. c #9A5639",
"O. c #A24127",
"+. c #A3432B",
"@. c #A64A28",
"#. c #B74828",
"$. c #A6542B",
"%. c #BB542A",
"&. c #A24C32",
"*. c #A6483A",
"=. c #A44D3D",
"-. c #B34A37",
";. c #A35135",
":. c #A95439",
">. c #A35A3E",
",. c #AC593B",
"<. c #B35435",
"1. c #B65B38",
"2. c #9A623D",
"3. c #BB6526",
"4. c #AB623B",
"5. c #B8653A",
"6. c #BE633D",
"7. c #D1411B",
"8. c #C66C1A",
"9. c #C66E1C",
"0. c #CE7717",
"q. c #CA711C",
"w. c #C74927",
"e. c #C6472B",
"r. c #DC5127",
"t. c #C24A35",
"y. c #CB443A",
"u. c #DC4D3A",
"i. c #C25A34",
"p. c #C75638",
"a. c #D35534",
"s. c #E2563B",
"d. c #C96629",
"f. c #D26F2E",
"g. c #CB7726",
"h. c #CA7329",
"j. c #D07622",
"k. c #C4643D",
"l. c #C36A3D",
"z. c #CB6838",
"x. c #D26735",
"c. c #D3693C",
"v. c #CF743D",
"b. c #D27F30",
"n. c #E07C2D",
"m. c #ED6435",
"M. c #F06A3E",
"N. c #904E48",
"B. c #A04B40",
"V. c #A95746",
"C. c #B65C47",
"Z. c #976444",
"A. c #A96143",
"S. c #B66240",
"D. c #BE674A",
"F. c #BE694C",
"G. c #BA6853",
"H. c #BC6952",
"J. c #CA4F40",
"K. c #C75E44",
"L. c #DF5241",
"P. c #C46646",
"I. c #CB6544",
"U. c #C56B44",
"Y. c #CB6B44",
"T. c #C3654A",
"R. c #CC6549",
"E. c #C56B4B",
"W. c #CB6B4A",
"Q. c #D46947",
"!. c #CB7349",
"~. c #D77645",
"^. c #D27B46",
"/. c #D67C4A",
"(. c #DB7B4C",
"). c #C56C54",
"_. c #C97754",
"`. c #D97D54",
"'. c #EF6444",
"]. c #F46E4C",
"[. c #FF7A52",
"{. c #408B07",
"}. c #438508",
"|. c #4A830B",
" X c #DA881D",
".X c #DC872B",
"XX c #DE8032",
"oX c #DA833C",
"OX c #E6892D",
"+X c #F3992E",
"@X c #EA9935",
"#X c #E7943C",
"$X c #F59C32",
"%X c #F59839",
"&X c #FCAE2E",
"*X c #FFB22D",
"=X c #EEA438",
"-X c #F6A334",
";X c #FEAE36",
":X c #F4A13A",
">X c #F2AA3B",
",X c #F6BA36",
"<X c #FCBD35",
"1X c #FFB43C",
"2X c #FFBB3D",
"3X c #DB8548",
"4X c #DE8455",
"5X c #D5825C",
"6X c #DE855D",
"7X c #E38A4B",
"8X c #E99543",
"9X c #E5904C",
"0X c #FC9F48",
"qX c #E18B59",
"wX c #E98D5B",
"eX c #E99655",
"rX c #F79D56",
"tX c #EFA345",
"yX c #FAA04B",
"uX c #FBAD4B",
"iX c #FFB543",
"pX c #FEBA43",
"aX c #FEB34D",
"sX c #FFBA49",
"dX c #FBA757",
"fX c #D98663",
"gX c #EC9564",
/* pixels */
"{.{.{.{.{.{.{.{.{.{.{.{.{.{.{.{.{.{.{.{.{.{.{.{.{.{.{.{.{.{.{.{.{.{.{.{.{.{.{.{.{.{.{.{.{.{.{.{.{.{.{.{.{.{.{.{.",
"{.{.{.{.{.{.{.{.{.{.{.{.{.{.{.{.{.{.{.{.{.{.{.{.{.{.{.{.{.{.{.{.{.{.{.{.{.{.{.{.{.{.{.{.{.{.{.{.{.{.{.{.{.{.{.{.",
"{.{.{.{.{.{.{.{.{.{.{.{.{.{.{.{.{.{.{.{.{.{.{.{.{.{.{.{.{.{.{.{.{.{.{.{.{.{.{.{.{.{.{.{.{.{.{.{.{.{.{.{.{.{.{.{.",
"{.{.{.{.{.{.{.{.{.{.{.{.{.{.{.{.{.{.{.{.{.{.{.{.{.{.{.{.{.{.{.{.{.{.{.{.{.{.{.{.{.{.{.{.{.{.{.{.{.{.{.{.{.{.{.{.",
"{.{.{.{.{.{.{.{.{.{.{.{.{.{.{.{.{.{.{.{.{.{.{.{.{.{.{.{.{.{.{.{.{.{.{.{.{.{.{.{.{.{.{.{.{.{.{.{.{.{.{.{.{.{.{.{.",
"{.{.{.{.{.{.{.{.{.{.{.{.{.{.{.{.{.{.{.{.{.{.{.{.{.{.{.{.{.{.{.{.{.{.{.{.{.{.{.{.{.{.{.{.{.{.{.{.{.{.{.{.{.{.{.{.",
"{.{.{.{.{.{.{.{.{.{.{.{.{.{.{.{.{.{.{.{.{.{.{.{.{.{.{.{.{.{.{.{.{.{.{.{.{.{.{.{.{.{.{.{.{.{.{.{.{.{.{.{.{.{.{.{.",
"{.{.{.{.{.{.{.{.{.{.{.{.{.{.{.{.{.{.{.{.{.{.{.{.{.{.{.{.{.{.{.{.{.{.{.{.{.{.{.{.{.{.{.{.{.{.{.{.{.{.{.{.{.{.{.{.",
"{.{.{.{.{.{.{.{.{.{.{.{.{.{.{.{.{.{.{.{.{.{.{.{.{.{.{.{.{.{.{.{.{.{.{.{.{.{.{.{.{.{.{.{.{.{.{.{.{.{.{.{.{.{.{.{.",
"{.{.{.{.{.{.{.{.{.{.{.{.{.{.{.{.{.{.{.{.{.{.{.{.{.{.{.{.{.{.{.{.{.{.{.{.{.{.{.{.{.{.{.{.{.{.{.{.{.{.{.{.{.{.{.{.",
"{.{.{.{.{.{.{.{.{.{.{.{.{.{.{.{.{.{.{.{.{.{.{.{.{.{.{.{.{.{.{.{.{.{.{.{.{.{.{.{.{.{.{.{.{.{.{.{.{.{.{.{.{.{.{.{.",
"{.{.{.{.{.{.{.{.{.{.{.{.{.{.{.q 2 % , < 7 8 8 6 > o o o > |.{.{.{.8 , o o 9 {.{.{.{.{.{.{.{.{.{.{.{.{.{.{.{.{.{.",
"{.{.{.{.{.{.{.{.{.{.{.{.{.{.w 2.4.4./ } p y y | n =.A.>.n ] i 4 t X.b >.A.Z.w {.{.{.{.{.{.{.{.{.{.{.{.{.{.{.{.{.",
"{.{.{.{.{.{.{.{.{.{.{.{.{.{.] _.eXeX1.M & # * c O.`.eX3X-.v * * * n $.6XgX_.] {.{.{.{.{.{.{.{.{.{.{.{.{.{.{.{.{.",
"{.{.{.{.{.{.{.{.{.{.{.{.{.{./ 3XaXaXz.Z l l A A R 9XaXtX%.Z m Z m z ! dXdX9XP }.{.{.{.{.{.{.{.{.{.{.{.{.{.{.{.{.",
"{.{.{.{.{.{.{.{.{.{.{.{.{.{.{ /.iXpXd.#.d.x.p.i.U #XpX>X! %.c.d.x.~ T 0XuX8XP |.{.{.{.{.{.{.{.{.{.{.{.{.{.{.{.{.",
"{.{.{.{.{.{.{.{.{.{.{.{.{.{.{ 3XpXpX^ d.+X$X%Xn.I 8XsX=X~ f.%X+X$X0.T yXaX#XK |.{.{.{.{.{.{.{.{.{.{.{.{.{.{.{.{.",
"{.{.{.{.{.{.{.{.{.{.{.{.{.{.[ 3XaXpX8.j.;X*X;XOXI 8XaXuXY XX1X*X&X XQ rXaX8X' |.{.{.{.{.{.{.{.{.{.{.{.{.{.{.{.{.",
"{.{.{.{.{.{.{.{.{.{.{.{.{.{.{ /.uXuX^ g.pX<X2X@XI 7XdX8XT OXpX<X1X.X! gXdX3X/ |.{.{.{.{.{.{.{.{.{.{.{.{.{.{.{.{.",
"{.{.{.{.{.{.{.{.{.{.{.{.{.{./ U.3X8XQ h.pX,XpX@XU ^.7XoXQ XXiX2XpX.XE `.7X^...|.{.{.{.{.{.{.{.{.{.{.{.{.{.{.{.{.",
"{.{.{.{.{.{.{.{.{.{.{.{.{.{./ ,.^.v.E 3.:X-X:Xb.s 6./.z.s h.%X$X:X9.d Y.^.5.& |.{.{.{.{.{.{.{.{.{.{.{.{.{.{.{.{.",
"{.{.{.{.{.{.{.{.{.{.{.{.{.{.&  .W.k.@.W 9.q.g.3.k <.i.%.L 1.h.q.q.Q E 6.l.$.@ }.{.{.{.{.{.{.{.{.{.{.{.{.{.{.{.{.",
"{.{.{.{.{.{.{.{.{.{.{.{.{.{.% =.R.Q.k.@.s O s k R.%.x #.K.N O a a E 6.U.U.,.% }.{.{.{.{.{.{.{.{.{.{.{.{.{.{.{.{.",
"{.{.{.{.{.{.{.{.{.{.{.{.{.{.% =.R.Q.Y.6.&.;.;.-.#.a.a.a.t.-.&.;.:.<.U.U.U.;.% }.{.{.{.{.{.{.{.{.{.{.{.{.{.{.{.{.",
"{.{.{.{.{.{.{.{.{.{.{.{.{.{.% =.I.c.z.Y.l.W.I.p.w.r.m.M.w.p.i.Y.W.U.l.l.l.,.+ {.{.{.{.{.{.{.{.{.{.{.{.{.{.{.{.{.",
"{.{.{.{.{.{.{.{.{.{.{.{.{.{.- ..E.Y.k.P.U.I.t.e.'.7.r.[.].w.#.Y.W.E.U.U.E.:.+ {.{.{.{.{.{.{.{.{.{.{.{.{.{.{.{.{.",
"{.{.{.{.{.{.{.{.{.{.{.{.{.{.= b _ `  . . . .A t.L.D G u.s.w.O.O.+.`  . .*.V $ {.{.{.{.{.{.{.{.{.{.{.{.{.{.{.{.{.",
"{.{.{.{.{.{.{.{.{.{.{.{.{.{.= ; v v # c v M +.#.y.F F C G w.#.k k g # c c c . }.{.{.{.{.{.{.{.{.{.{.{.{.{.{.{.{.",
"{.{.{.{.{.{.{.{.{.{.{.{.{.{.- ..C.C.v ..5.!.`.~.S H J H w.x.~.(.6.` g V.C.B.X }.{.{.{.{.{.{.{.{.{.{.{.{.{.{.{.{.",
"{.{.{.{.{.{.{.{.{.{.{.{.{.{.e o.P.W.n _ !.4XqX4XK.J.H y.p.(.wXwX`.&.# C.).V.. }.{.{.{.{.{.{.{.{.{.{.{.{.{.{.{.{.",
"{.{.{.{.{.{.{.{.{.{.{.{.{.{.- ..k.z.M _ D.5X5X`.`.-.A -._.fX5X5XT.&.j S.U.,.. }.{.{.{.{.{.{.{.{.{.{.{.{.{.{.{.{.",
"{.{.{.{.{.{.{.{.{.{.{.{.{.{.- o.Y.z.1.&.k j ( j ) f h h _ j ( ( j +.,.U.U.,.@ }.{.{.{.{.{.{.{.{.{.{.{.{.{.{.{.{.",
"{.{.{.{.{.{.{.{.{.{.{.{.{.{.= N.D.Y.P.<.) l N ) ) ) N N ) ( ( ) L <.I.W.P.,.  {.{.{.{.{.{.{.{.{.{.{.{.{.{.{.{.{.",
"{.{.{.{.{.{.{.{.{.{.{.{.{.{.e N.G.E.).F.F.H.).H.H.H.H.G.H.H.H.F.D.P.T.T.).V.> {.{.{.{.{.{.{.{.{.{.{.{.{.{.{.{.{.",
"{.{.{.{.{.{.{.{.{.{.{.{.{.{.q u : b b b } } B B B } } } B B } } } r } } r t |.{.{.{.{.{.{.{.{.{.{.{.{.{.{.{.{.{.",
"{.{.{.{.{.{.{.{.{.{.{.{.{.{.{.0 9 < 3 3 3 3 3 3 < < 1 1 1 1 1 1 1 5 5 5 6 |.{.{.{.{.{.{.{.{.{.{.{.{.{.{.{.{.{.{.",
"{.{.{.{.{.{.{.{.{.{.{.{.{.{.{.{.{.{.{.{.{.{.{.{.{.{.{.{.{.{.{.{.{.{.{.{.{.{.{.{.{.{.{.{.{.{.{.{.{.{.{.{.{.{.{.{.",
"{.{.{.{.{.{.{.{.{.{.{.{.{.{.{.{.{.{.{.{.{.{.{.{.{.{.{.{.{.{.{.{.{.{.{.{.{.{.{.{.{.{.{.{.{.{.{.{.{.{.{.{.{.{.{.{.",
"{.{.{.{.{.{.{.{.{.{.{.{.{.{.{.{.{.{.{.{.{.{.{.{.{.{.{.{.{.{.{.{.{.{.{.{.{.{.{.{.{.{.{.{.{.{.{.{.{.{.{.{.{.{.{.{.",
"{.{.{.{.{.{.{.{.{.{.{.{.{.{.{.{.{.{.{.{.{.{.{.{.{.{.{.{.{.{.{.{.{.{.{.{.{.{.{.{.{.{.{.{.{.{.{.{.{.{.{.{.{.{.{.{.",
"{.{.{.{.{.{.{.{.{.{.{.{.{.{.{.{.{.{.{.{.{.{.{.{.{.{.{.{.{.{.{.{.{.{.{.{.{.{.{.{.{.{.{.{.{.{.{.{.{.{.{.{.{.{.{.{.",
"{.{.{.{.{.{.{.{.{.{.{.{.{.{.{.{.{.{.{.{.{.{.{.{.{.{.{.{.{.{.{.{.{.{.{.{.{.{.{.{.{.{.{.{.{.{.{.{.{.{.{.{.{.{.{.{.",
"{.{.{.{.{.{.{.{.{.{.{.{.{.{.{.{.{.{.{.{.{.{.{.{.{.{.{.{.{.{.{.{.{.{.{.{.{.{.{.{.{.{.{.{.{.{.{.{.{.{.{.{.{.{.{.{.",
"{.{.{.{.{.{.{.{.{.{.{.{.{.{.{.{.{.{.{.{.{.{.{.{.{.{.{.{.{.{.{.{.{.{.{.{.{.{.{.{.{.{.{.{.{.{.{.{.{.{.{.{.{.{.{.{.",
"{.{.{.{.{.{.{.{.{.{.{.{.{.{.{.{.{.{.{.{.{.{.{.{.{.{.{.{.{.{.{.{.{.{.{.{.{.{.{.{.{.{.{.{.{.{.{.{.{.{.{.{.{.{.{.{.",
"{.{.{.{.{.{.{.{.{.{.{.{.{.{.{.{.{.{.{.{.{.{.{.{.{.{.{.{.{.{.{.{.{.{.{.{.{.{.{.{.{.{.{.{.{.{.{.{.{.{.{.{.{.{.{.{.",
"{.{.{.{.{.{.{.{.{.{.{.{.{.{.{.{.{.{.{.{.{.{.{.{.{.{.{.{.{.{.{.{.{.{.{.{.{.{.{.{.{.{.{.{.{.{.{.{.{.{.{.{.{.{.{.{.",
"{.{.{.{.{.{.{.{.{.{.{.{.{.{.{.{.{.{.{.{.{.{.{.{.{.{.{.{.{.{.{.{.{.{.{.{.{.{.{.{.{.{.{.{.{.{.{.{.{.{.{.{.{.{.{.{.",
"{.{.{.{.{.{.{.{.{.{.{.{.{.{.{.{.{.{.{.{.{.{.{.{.{.{.{.{.{.{.{.{.{.{.{.{.{.{.{.{.{.{.{.{.{.{.{.{.{.{.{.{.{.{.{.{.",
"{.{.{.{.{.{.{.{.{.{.{.{.{.{.{.{.{.{.{.{.{.{.{.{.{.{.{.{.{.{.{.{.{.{.{.{.{.{.{.{.{.{.{.{.{.{.{.{.{.{.{.{.{.{.{.{.",
"{.{.{.{.{.{.{.{.{.{.{.{.{.{.{.{.{.{.{.{.{.{.{.{.{.{.{.{.{.{.{.{.{.{.{.{.{.{.{.{.{.{.{.{.{.{.{.{.{.{.{.{.{.{.{.{.",
"{.{.{.{.{.{.{.{.{.{.{.{.{.{.{.{.{.{.{.{.{.{.{.{.{.{.{.{.{.{.{.{.{.{.{.{.{.{.{.{.{.{.{.{.{.{.{.{.{.{.{.{.{.{.{.{.",
"{.{.{.{.{.{.{.{.{.{.{.{.{.{.{.{.{.{.{.{.{.{.{.{.{.{.{.{.{.{.{.{.{.{.{.{.{.{.{.{.{.{.{.{.{.{.{.{.{.{.{.{.{.{.{.{.",
"{.{.{.{.{.{.{.{.{.{.{.{.{.{.{.{.{.{.{.{.{.{.{.{.{.{.{.{.{.{.{.{.{.{.{.{.{.{.{.{.{.{.{.{.{.{.{.{.{.{.{.{.{.{.{.{.",
"{.{.{.{.{.{.{.{.{.{.{.{.{.{.{.{.{.{.{.{.{.{.{.{.{.{.{.{.{.{.{.{.{.{.{.{.{.{.{.{.{.{.{.{.{.{.{.{.{.{.{.{.{.{.{.{.",
"{.{.{.{.{.{.{.{.{.{.{.{.{.{.{.{.{.{.{.{.{.{.{.{.{.{.{.{.{.{.{.{.{.{.{.{.{.{.{.{.{.{.{.{.{.{.{.{.{.{.{.{.{.{.{.{."
};
