/* XPM */
static char *_ade17004202410483f68531ca49ebe5ypNXKByyox6GekKh[] = {
/* columns rows colors chars-per-pixel */
"56 56 204 2 ",
"   c #033900",
".  c #0B3D02",
"X  c #023400",
"o  c #0F4300",
"O  c #124502",
"+  c #154A02",
"@  c #194E03",
"#  c #15460C",
"$  c #174909",
"%  c #1B4D0C",
"&  c #1D5302",
"*  c #1F5905",
"=  c #1E520B",
"-  c #154511",
";  c #174811",
":  c #1C4D14",
">  c #1B4B19",
",  c #1F5212",
"<  c #1F5018",
"1  c #204E0E",
"2  c #215604",
"3  c #245B03",
"4  c #295F04",
"5  c #22550C",
"6  c #255A0C",
"7  c #295E0C",
"8  c #214E14",
"9  c #225512",
"0  c #265A13",
"q  c #295D14",
"w  c #23551A",
"e  c #27591B",
"r  c #2A5D1B",
"t  c #285618",
"y  c #276100",
"u  c #2C6404",
"i  c #2E6902",
"p  c #2C630B",
"a  c #2D680A",
"s  c #336C04",
"d  c #31670E",
"f  c #336B0D",
"g  c #386E0E",
"h  c #367002",
"j  c #397306",
"k  c #3E7C00",
"l  c #36700B",
"z  c #3A730D",
"x  c #3F790A",
"c  c #2D6214",
"v  c #2E621A",
"b  c #316614",
"n  c #356B13",
"m  c #386F14",
"M  c #31651B",
"N  c #356B1B",
"B  c #396E1D",
"V  c #367012",
"C  c #3B7314",
"Z  c #3F7916",
"A  c #3C731C",
"S  c #3F781A",
"D  c #235322",
"F  c #2B5D22",
"G  c #2F5F2B",
"H  c #2F6122",
"J  c #326523",
"K  c #366A22",
"L  c #396D23",
"P  c #33652A",
"I  c #376A28",
"U  c #3B6D2B",
"Y  c #3D7223",
"T  c #3E7229",
"R  c #3F7922",
"E  c #376630",
"W  c #3B6C33",
"Q  c #3E7033",
"!  c #417E07",
"~  c #427C0C",
"^  c #427B15",
"/  c #40771C",
"(  c #437B1C",
")  c #487F1A",
"_  c #417624",
"`  c #447B24",
"'  c #487F25",
"]  c #42762C",
"[  c #457B2B",
"{  c #497E2B",
"}  c #437532",
"|  c #467A33",
" . c #4A7E33",
".. c #437538",
"X. c #4A7C3A",
"o. c #44800E",
"O. c #478113",
"+. c #4A8416",
"@. c #4D8914",
"#. c #47811A",
"$. c #4A831C",
"%. c #4F891E",
"&. c #528D1D",
"*. c #56931B",
"=. c #478123",
"-. c #4B8324",
";. c #4C832B",
":. c #4F882A",
">. c #4E8822",
",. c #528B24",
"<. c #50872C",
"1. c #538B2C",
"2. c #599326",
"3. c #5E9827",
"4. c #57902E",
"5. c #5B932D",
"6. c #5F9929",
"7. c #559026",
"8. c #4D8233",
"9. c #4E8239",
"0. c #518633",
"q. c #548B34",
"w. c #588F33",
"e. c #50843A",
"r. c #52863B",
"t. c #558B3A",
"y. c #598E3C",
"u. c #579031",
"i. c #5B9334",
"p. c #5C933C",
"a. c #57913A",
"s. c #629C2D",
"d. c #629B35",
"f. c #60973D",
"g. c #639B3C",
"h. c #699F3D",
"j. c #65A22B",
"k. c #69A42E",
"l. c #67A130",
"z. c #6BA635",
"x. c #67A13A",
"c. c #6BA43D",
"v. c #6FA83B",
"b. c #72AC3D",
"n. c #76B33A",
"m. c #4F8144",
"M. c #598D43",
"N. c #578A49",
"B. c #5B8E4B",
"V. c #568A42",
"C. c #5E9442",
"Z. c #5E924A",
"A. c #619643",
"S. c #659B44",
"D. c #699F44",
"F. c #629649",
"G. c #659B4A",
"H. c #699E4B",
"J. c #6A9E53",
"K. c #679855",
"L. c #67A041",
"P. c #6CA444",
"I. c #6FA945",
"U. c #6DA44B",
"Y. c #73AC45",
"T. c #73AC4A",
"R. c #77B144",
"E. c #79B545",
"W. c #7CB944",
"Q. c #77B14A",
"!. c #7BB44B",
"~. c #7EB848",
"^. c #6DA253",
"/. c #6CA058",
"(. c #70A554",
"). c #73A952",
"_. c #78AE56",
"`. c #71A559",
"'. c #75AA5B",
"]. c #78AE5B",
"[. c #7BB353",
"{. c #7CB35A",
"}. c #78AD67",
"|. c #7DB367",
" X c #83BE4C",
".X c #82BC53",
"XX c #80B75C",
"oX c #84BD5A",
"OX c #82B767",
"+X c #84BB60",
"@X c #88BF64",
"#X c #81B56B",
"$X c #85BB69",
"%X c #8AC45A",
"&X c #86C153",
"*X c #89C74C",
"=X c #8EC669",
"-X c #91C76F",
";X c #91C86B",
":X c #94D06E",
">X c #8CC171",
",X c #93CA71",
"<X c #98CF71",
"1X c #9ED38B",
/* pixels */
"Z.c 7 _ V.@ e.Y r e.f m & L I 5 3 ;.0 K @ c 8.d -.$.-.A = r _ N [ & [.m 2 L q 6 ^ ) ,.f.{ c M I 6 Y ] ] K @ F.M ",
"T 6 3 Y 6 L 5 6 e T 4 <.  0.I r f C q B.q _ Y + -X& ^ A 6 B.Y ` B 7 ( ;.@ 6 N p.u h.m q.+ O M Y 7 `.q = q L Y _ ",
"n C.Y Y p ` p b 9 v N U.u p.J + n -.F.c & G._ L e.6 u a f t.n C.B A b n [ 7 ` ( 1.:.2 b @ = A.u S.0.t.6 p t.b p.",
"n t.0 8.n m p ^.F.J 8.f d.U.= O ( Q.N A A 8.6  .9 o d P.f ^ d p [ Y 7 p.' ' m :.U.` @ q O (.p.f <.;.b o p b + b ",
"I q v = 6 :.C -.H.p 1.z d.a @  .1.u ( ' Y n Y N 6 + _ u.P.& C ` L q v ;.p :.4 q._ = @ L 2 t.S.w.2 ( u w.A f.& p ",
"9 r q e. .7 i.i.+ ' ) R.$.( @ b g.s i.:.q.4 q.b b U.p.f u.4 :.+ B T 5 c m ^ C ;.q + Z.c A / S.S ' y m ;.p p.q.' ",
"6 N 4 p.= M N _ _ n ^ !.4 3 ~.y 5.a { 2 -.x.Y.Y.' _ ( u ) ( (.O p t.q & :.+X+ N 9 t y.3 Q.u -.3 f.( ( m m S.7 7 ",
"A.+ V ( c M b A ;.A $.f p.m v.b.,.u.@ c #.&.3.%.A p -.x.-.C y.& -.u |.v 8.3 S p.M [ -.>..Xi C f U.S ` _ _ _ + K ",
"u & ' _ ` p 5.u ) ,.-.& y.N Z {.:.& q 3 *.k z.& 2 A.5.d.Z q.N b ,.#.6 c G.p :.<._ ' 5.%.i $.-.f <.m + N _ v >X6 ",
"u {.A t.q.& ,.~  Xu ` + [ c _ d _ p 5 ' j.*X3.& & b [.3 4 t.M c $.1.c = ;.2 { 7 S C s 7.-.i.u ) -.4 +X& 2 m ].` ",
"Z [.2 8.O 1.s j Y.& _ & = B a <._ & c f.2.2.d.p @ [ ` n 7 { 6 _ <._ B N [ 6 ] + & & y 1.q._ l Y.V a S.& A 7 0.A ",
":.3 & y.7 p z 5.i.n { c ] 3 ^ 5.u n U.a -.V a S.M X.J K y.A p >Xq L v L _ = U + v & f ;.@ Y m c.z -.u ( p.3 ` p.",
"t.& 3 U.N 6 3 <.t.` 2 U.c ' v.z.y m S._ _ 4 m t.q W F < N A A n % 9 ] q [ c U : X.6 _ A r.M p T./ ( m P.;.A p q.",
"] o p.p L L 0.7 Y [ 3 T.2 & d.~ s :.p.Y t.c A Y O D D > = Y :.3 v X.L 6 3 7 t 9 Z.6 q.;.c K b g.:.<.m {.& N 2 ;.",
"t O p.u p 7 p.& 7 { 3 f.6 n ' -.-.( [ c p.& q e w D W : ; J @ oX` t.O @ & D.7 0.C.+ u.u.7 p.y d.m ` b ].2 5 6 [ ",
"e 5 q.u C P._ b 2 S.& {.b Y n 4 -.' n & p.b 5 % ; F m.> > O p h.u.3 7 [ A ( n ;.t.p C m 3 A f 5.q.& B 8.Y 9.M q ",
"v C.1.f O.Y.p v 6 [ u.( N L C.4 S -.:._ ;.* = v J.L ... : 9 t.& <.( ( V p.2 3 _ M O 8.2 * { f T.N 9  .T r U = c ",
"| 7 <.,.x Y.@ 9 v 8.S.& q Y p.4 C S.3 ;.c N ;.].N * t ..H L D.4 <.=.i.( t.2 c c U 5 N 0 v [ 4 p.M H ] 0 P t c n ",
"U = 2 f.z q.9 + p.-.;.q C.7 ' ^ p t.6 q M 0.p.4 2 7 5 = J._ ' f A & =.u.q.].L = J M q = e U Y N 0 M 5 q | 5 4 2.",
"F @ 2 <.3 Y 9 9 Y f c * A ' m A Y v 5 [ v B ;.4 XX3 3 N C.g.u [.C 1.f f XXA 2 M t.M L } : t 7 C.M 6 c & = _ -.5.",
"9 q b A >XN B.v 9.2 ` u !.%Xn M.T M 7 U.2 7 b & [.3 1.S ` i.%.s.3 &X@.R.m u z.b.( N 5 J = c N A.= = [ 2 N N U.m ",
"6 '.@ u.;.2 r.+ M c m c.o.,.c T T Y / u.n ` 8.A P.4 Z u.d p.d.& O.%.E.x 4 u k.@.& U. . .G.c n n M B ).& ` c p.:.",
"` & & f.y ^ 1.b 5 6 f.f.+.x f c B A n d A :.;.7 p.f u q.& p.-.u ,.4.d.s %.%X3.s y g.d G.q  .7 3 f.w.f./ 0.2 S i.",
"f.u s d.y P.<.A n A ^ ,.j 2.<.U.7 ;.( q.;.& L c { B 2 B G._ { 3 [ c 7 u f 5.i.u ^ w.p { L ] N u.' P.n p t.n f C ",
"1.f !.x &.i.[ + L.#.Y.,.#.s a A.3 b p ;.8.o J = I % K K 5 9.[ [ v J = q 9 Y i.3 a N A q v ] p.& m f.3 7 Y Y ].N ",
"( -.i.) ,.<.Y @ ) %X-.a 1.& [.2 y.p & b _ = % r 9 0 Z.o q ] B c % = J }., c ^ x.p N b M = c H.3 ;.{ @ @ c #Xo v ",
"_ n :.( / f m ) 2.#.N 9 _ d !.$.w.t.n p.q J e % #X+ F.c 5 6 u f.t.5 Y Y ' & f.=.& c 5 C.7 t.] L A 4 $Xp <.A O v ",
"[ c c Y c [.C ^ oXf t r M ' 1.i.4 0.` 0.L . B.] H.@ p.` p.' f oX4 :.` m Z [.I.& r.9 c ] ]._  .O 7 S.Y 8.A p 0 I ",
"L q q L p g.& x.u 6 = 5 B ' p A p b L _ 5 = G.3 q.& <.S -.C c.& f ( c.z s ,.u A I + [ c r J r 9 p ` M . q 9.% J ",
"Y '.5 L 4 x.3 !.& v X.q c B _ N n & T K r M _ 2 ) u m p A / f.1.u Z d.j u 1.f U.T r M q O r r 9 [ C.r O L L 9 H ",
"8.= 5 p W.*.s ;X+ V.} = v q L % e.5 J % $ X.[ @ 3 5.;.M + ] { ` p V ^ %Xl =Xg.8.e F 0 7 ,X2 @ q $X[ q 9 9.c P F ",
"M 6 c 1.n.k #.g.2 9.] L 5 L 9 9 U @ K 5 O  .N A [.g t.0 % X.O K (.( u ( 4.( ;.5 : , y.:.XX+ p C.& B = M _ A.9 E ",
"_ & f u.i.u c.-.3 / F.B Y ;.= 5 = c a A p N 0.( T.f Y r = P : . OXu @ t.8.B L T # + S.( [.4 ,.P.+ Y + 9 ( T.M F ",
"F.7 u 1.` & D.-.^ i.N 0.2 8. .q = C.P.1.;.c _ 1.-.` v = 9 I # # t.b p Y 7 6 M q ^.7 p.^ g.3 c.y q. .J.O T.z b Y ",
"K.@ f 1.2 & ' ( ( ;.8.6 q J N ^.A _ P.1.q q 7 { & c r 9 T 7 _ 7 _ L . N m 1._ & d.Y.' :.1.$.p.3 p.m D.p p.a :.i.",
"_ r.3 m (.* _ N _ B K = $ = q _ G.4 -.' = = C.;.7 N Z.5 ;.m P.( c ] + N u.u & ;.s s.3 S i ,.f p ' m -.P.N O ` -.",
"_ p L @ v M L c [ M I o r 9 q 6 ;.m f ( B L 8.0.c n ) 5.^ g.j D.6  .A 1.1.a * e.3 ^ u ,.j.! $.( V u ( p.= 9 = _ ",
"Z n r O r.c 6 M q q I % T T L 6 r.4 4 =.3 c [ ` 7 ( %.h C w.( / c y.f [.4 ,XN  .v b S ,.j.j.l {.i.u ( S.5 v L c ",
"4 H.P - I L c e.e % M 6 v & 3 t.Y b i.g.2 2 d U.3 n 4 1.;.' 1.Z S q.4 ^ -.P.C.M B n 7 ' g.^ A 8._ A 0.A 6 K B c ",
"u D.w - O v L /.t J 8.c c [ m ( p 0.f.C (.7 C S.& N f b Y L p.4 m u U.a ( m F.q F.n n [ q.A p L C.N 4 ;.v v 4 g.",
"' B X F + S.] O 6 G.2 2 n m ,.c.;.c 8.2 8.+ U.:.K L u.p.Q P _ & B 5 L 5 t.A K 5 N S.n c q.q.p [ M.v 2 @X .6 Z +.",
"N [ r % 4 d.c v & [ 7 8.A C x c.B M M = B 2 _ ` B N ( :.P : 0 $XM @ e $ ] 9.% 9 c { _ A 4 p.p q.v N p [.b ;.5.x ",
"K = J c c.O.0.c N '.b {.+ u. X6.c 9 M & L _ b 3 A ' ^ .X2 r.+ Y e.8.0 T % r , P : H [ n c ' f q.v = _ N Y ' u z ",
"U . 9 Y ~ ~.' c L [ Y b ' ^ l.%.B r t.6 q L n A n -.2.^ & [ a U.0.N T U 9 r r w G J [ n b [ Z f  .9 P 5 ).' d m ",
"e 9 $ n O.R._ M Y M r.O a g.5.^ 3 _ L N B Y Y N b g.( ( C 4 W.%Xp v P 9 O P , H v q [ 7 A ;.Z S @ r w F { A M q ",
"m., ] { b.s.b I 6 L 6 8._ ' ;.n 6 = q L J.N [ 7 B A a ' q.u z.E.p = q + T  .} v 7 { Y 2 g.V D.Y q t F H _ Y O N.",
"r = q y.^ -.J J = 3 b Y B M v t % $ 9 ] | 5 q M b n b A _ p.S p @ F.& m -.;.@ @ t._ Y 2 A :.8.o = 5 } r 9.K . } ",
"o + `.3 y m + , B [ N Y M + J O o O #X6 T 1XO M 7 t.2 c 2 Y B q @ C.-X1.d.-.& + ].n 6 N A t.q v ^.@ L q M J 0 0 ",
"& OXt.2 c c y.2 C.F.@ Y 2 ;.6 5 U ] _ c 8.N = 6 7 t.5 T Y L L M V.Y A 1.d.& u L.+ c 6 C.& m A p._ 7 p.Y 5 L H.0.",
"_ r.b 5 6 B D.4 _ b v q b q.c '.q q c Y a.A * * {.[ 0 J M q r r M B 7 ;.z c.s I.7 = 7 p.O A y <X& C.' & q M b :.",
";._ q M & p.A p m _ J + H.( C.2 5 @ q _ p.& q.q.3 b + M 9 } r J q M c t.& Y.c.^ 2 ^.& ` D.q.-.S.c G.4 & 6 q A u ",
"m N v 9 & q.N 2 ` C.I r y.q.7 K 6 q 6 p u V ' q.A N 5 t 5 U J t 0 6 0 ] & T.P.3 t.N 7 :.T.S <.& `.c ).& 5 N N A ",
"p 5 9 t ].3 t.@ D.A v | c b c ^.c b { d & :XR Y p.@ 9 J e r N.O `.r.r 5 & P.p.+ ).4 U.3 q.f ' 7 e.7 p.3 y.v c S ",
"c q + + _ A y.A q.2 @ M 0 5 5 _ n _.+ p Z [.N ] { Y r % % q K t e.9 % I + f.B [ b q.& f f [.' 6 N 6 d f 8.= :.-.",
"c = : X.b / p.m 2 + 6 6 e 9 v [ :.( y u Q.=.c L r O t 8 O v L ] M t # % 5 t.N N _ + Z P.u g.& 7 c 2 f S 8.q n ' ",
"e.5 % 9.* ` p n 0.H.0.t.$ % | b T.y T.^ T.a q 9 % 9 8 K.X.M C.[ M 1 : : v e.q 8.N q.u i.1.' 2 M = Y ' ,XN c N u."
};
