/* XPM */
static char *xpm_[] = {
/* columns rows colors chars-per-pixel */
"56 56 230 2 ",
"   c #020500",
".  c #0C0200",
"X  c #010C00",
"o  c #0A0C00",
"O  c #130100",
"+  c #1C0500",
"@  c #120C00",
"#  c #1B0C00",
"$  c #021200",
"%  c #0D1501",
"&  c #031C00",
"*  c #0A1B00",
"=  c #131B00",
"-  c #1B1800",
";  c #151400",
":  c #220200",
">  c #220D00",
",  c #2B0D00",
"<  c #280000",
"1  c #291700",
"2  c #351500",
"3  c #3B1D02",
"4  c #381B00",
"5  c #320900",
"6  c #052500",
"7  c #0C2401",
"8  c #162B00",
"9  c #1B3A01",
"0  c #163403",
"q  c #3F2400",
"w  c #243901",
"e  c #332615",
"r  c #530000",
"t  c #5B0000",
"y  c #4D1600",
"u  c #750900",
"i  c #452100",
"p  c #4C2B05",
"a  c #4B270F",
"s  c #5C2500",
"d  c #532C00",
"f  c #5C2A00",
"g  c #562B08",
"h  c #4A3400",
"j  c #57370A",
"k  c #5A3814",
"l  c #632700",
"z  c #622B00",
"x  c #692800",
"c  c #6E3907",
"v  c #783C05",
"b  c #6B3B1A",
"n  c #772402",
"m  c #1D4101",
"M  c #1A4A00",
"N  c #234200",
"B  c #274A08",
"V  c #2A5A04",
"C  c #25500A",
"Z  c #2C530B",
"A  c #2D5D0B",
"S  c #275403",
"D  c #315C06",
"F  c #32570C",
"G  c #2A4E10",
"H  c #2D5814",
"J  c #335B12",
"K  c #345413",
"L  c #2E610D",
"P  c #33640B",
"I  c #35670C",
"U  c #3A780C",
"Y  c #346513",
"T  c #3A6B14",
"R  c #3A6916",
"E  c #3A7412",
"W  c #3C721B",
"Q  c #3D7A14",
"!  c #3C6320",
"~  c #7B440A",
"^  c #784617",
"/  c #62511D",
"(  c #785614",
")  c #67411A",
"_  c #416E18",
"`  c #447714",
"'  c #43741B",
"]  c #457C1B",
"[  c #477C16",
"{  c #507F19",
"}  c #52402A",
"|  c #794925",
" . c #4B7B21",
".. c #467F21",
"X. c #796236",
"o. c #BD0600",
"O. c #BC0B00",
"+. c #B70A00",
"@. c #AD1702",
"#. c #B71A00",
"$. c #B7321F",
"%. c #B53921",
"&. c #C30B02",
"*. c #C60801",
"=. c #CC1203",
"-. c #C41703",
";. c #D41507",
":. c #DF1F10",
">. c #C82907",
",. c #DA240B",
"<. c #D5270B",
"1. c #CA3805",
"2. c #D53B07",
"3. c #DC2411",
"4. c #D12414",
"5. c #D73B17",
"6. c #82460C",
"7. c #8C4C18",
"8. c #8E5716",
"9. c #975519",
"0. c #A35F1E",
"q. c #AE481B",
"w. c #856117",
"e. c #9B5C23",
"r. c #9B5E31",
"t. c #86642B",
"y. c #937133",
"u. c #B46928",
"i. c #AC6A37",
"p. c #B97336",
"a. c #BF7328",
"s. c #DB4313",
"d. c #D84B19",
"f. c #D9551A",
"g. c #DA591D",
"h. c #C84203",
"j. c #E2551E",
"k. c #D7691E",
"l. c #D16815",
"z. c #E56315",
"x. c #CE542F",
"c. c #DD5921",
"v. c #D35828",
"b. c #E65C27",
"n. c #F45C2A",
"m. c #F85E2C",
"M. c #C2722C",
"N. c #C37A2E",
"B. c #C87829",
"V. c #DF6138",
"C. c #CC7A34",
"Z. c #C57835",
"A. c #D57C3B",
"S. c #D77839",
"D. c #C56A29",
"F. c #E7672A",
"G. c #E97A27",
"H. c #EC6C32",
"J. c #ED7D3D",
"K. c #EA7734",
"L. c #F07739",
"P. c #856149",
"I. c #D36B46",
"U. c #3D8603",
"Y. c #358B01",
"T. c #3E8C05",
"R. c #3E850A",
"E. c #3E8C0A",
"W. c #358404",
"Q. c #3B9107",
"!. c #3C910A",
"~. c #369106",
"^. c #3D8B12",
"/. c #3F8115",
"(. c #428506",
"). c #428B05",
"_. c #43850D",
"`. c #408C08",
"'. c #4A8A0C",
"]. c #439105",
"[. c #42920B",
"{. c #438513",
"}. c #498515",
"|. c #448A12",
" X c #498913",
".X c #448518",
"XX c #4B8419",
"oX c #45881B",
"OX c #4C8919",
"+X c #429213",
"@X c #478522",
"#X c #BD853B",
"$X c #D58728",
"%X c #CD8439",
"&X c #D78737",
"*X c #D3913D",
"=X c #F0802E",
"-X c #E18134",
";X c #E48439",
":X c #E7883A",
">X c #F88738",
",X c #E7973A",
"<X c #F39C3D",
"1X c #F8973F",
"2X c #E3882B",
"3X c #ECA23E",
"4X c #E7A53C",
"5X c #F0A13B",
"6X c #F8A03E",
"7X c #B68946",
"8X c #D69846",
"9X c #D79753",
"0X c #D18B46",
"qX c #F68944",
"wX c #EE9E40",
"eX c #E09F4B",
"rX c #FF9444",
"tX c #FD9B44",
"yX c #F7964F",
"uX c #FA9B47",
"iX c #F4954B",
"pX c #DAA54B",
"aX c #DCA147",
"sX c #DEA657",
"dX c #EBA341",
"fX c #E4A44A",
"gX c #E7A641",
"hX c #F5A144",
"jX c #D6A962",
"kX c #CCA67F",
/* pixels */
"`.`.`.`.`.`.`.`.`.).T.`.`.`.`.`.`.T.`.`.`.`.`.`.`.`.`.`.`.`.`.T.`.`.`.`.`.`.`.`.`.`.`.`.`.`.`.`.T.`.`.`.`.`.E.`.",
"`.`.T.`.`.`.T.`.`.`.`.`.`.T.`.E.`.`.`.`.`.T.].T.`.T.`.T.`.`.`.`.`.`.`.T.`.`.`.`.T.`.].`.`.`.`.`.`.`.`.`.].T.`.`.",
"T.`.`.`.`.`.`.`.`.`.`.`.`.`.`.`.`.T.`.`.`.`.`.`.`.`.`.`.T.`.`.`.`.`.E.].`.T.`.`.`.`.E.T.`.T.`.`.`.`.`.`.`.`.`.`.",
"`.`.`.`.`.`.`.`.`.`.).`.`.`.].T.`.`.`.`.`.`.`.`.`.`.`.`.`.`.`.`.`.T.`.`.`.`.`.`.`.`.`.`.`.`.`.E.`.`.`.T.`.`.T.`.",
"`.`.`.`.T.`.`.`.`.`.`.`.`.`.`.`.`.`.`.Q.`.`.T.`.T.`.`.`.`.`.].T.`.`.T.`.`.T.`.`.`.`.`.`.`.`.`.`.`.T.`.`.`.`.`.T.",
"T.`.`.E.`.`.`.`.`.`.Q.`.T.`.`.`.`.`.`.`.`.`.`.`.`.`.`.`.`.`.`.`.`.`.`.`.`.`.`.`.`.T.`.T.`.`.T.].`.T.].`.`.`.`.`.",
"`.`.T.`.`.`.`.T.`.`.`.`.`.`.`.`.`.`.`.`.`.`.).`.`.`.`.`.`.`.`.E.`.`.`.`.`.`.`.`.`.`.`.`.`.`.`.`.`.`.`.`.T.`.`.`.",
"`.`.].`.`.`.`.`.`.T.`.`.`.`.T.`.`.T.`.`.`.`.`.`.`.`.`.T.`.`.`.`.`.`.T.`.`.`.`.T.`.`.`.`.T.`.`.`.`.`.`.`.`.`.`.`.",
"`.`.`.T.`.`.`.`.`.T.`.`.`.`.`.`.T.E.`.`.`.E.).`.`.`.T.`.`.`.`.`.`.`.T.`.`.`.`.`.`.`.`.`.`.T.`.`.`.`.`.`.].T.`.`.",
"`.`.`.`.T.`.`.`.`.`.`.`.`.T.`.`.`.[.`.`.T.`.`.`.T.`.`.`.`.`.T.`.`.`.`.`.`.`.`.`.`.`.`.`.`.`.`.`.`.T.`.`.`.`.`.`.",
"T.`.`.`.`.`.`.`.`.`.`.`.`.`.`.`.T.`.`.`.).E.).E.`.`.`.T.`.`.`.`.`.`.T.`.`.`.`.T.T.`.T.`.`.`.E.`.`.`.`.`.T.`.`.`.",
"`.`.`.`.`.`.`.`.`.T.`.`.`.`.`.`.).`.`.`.`.).`.T.`.`.`.].`.`.`.`.`.`.`.`.T.`.`.].`.`.`.`.`.`.`.).`.T.`.`.`.`.`.`.",
"`.`.`.`.T.`.`.`.].T.`.`.`.`.`.`.`.`.).E.`.`.`.`.`.`.`.`.T.`.`.`.`.`.).`.].`.`.T.`.`.`.T.`.`.E.E.`.`.`.`.`.`.`.`.",
"`.`.`.`.`.`.`.`.`.`.`.`.`.`.`.`.E.T.`.`.`.`.`.).`.`.`.`.`.`.`.`.`.`.T.`.T.`.`.`.`.`.`.`.`.`.).`.`.`.`.E.T.`.T.`.",
"`.T.E.`.`.`.`.`.`.`.`.`.`.`.`.).E.T.`.`.`.`.`.`.`.`.`.`.`.`.`.`.`.`.`.`.`.`.`.`.`.`.`.`.`.`.E.E.`.`.`.`.`.`.`.`.",
"`.].`.`.`.`.T.`.`.`.).).`.`.).).|.[ U U U U _.|.`.`.`.`.`.`.E.T.`.`.`.`.E.`.).T.).T.).`.`.E.E.E.E.`.`.`.`.`.`.`.",
"[.E.`._._.`.`.).).).`.`.`.'.).U._ K 9 7 0 G A ] XX'.`.(.`.E.!.T.].T.(.[.E.`.`.].T.].T.).'.E.^.E.E.^.`.`.`.`.`.).",
"T.`.`._.`.E._.E.).).).`._.{.(.{ N X o       7 K D `  X_.`.T.T.T.).).`._.|.`.).U.`.`.).T.).`.|.E.^.|.`.).`.`.`.).",
"Q.T.`.'.`.^.E.E.).).E.E.^.oX' C w % 1 h i q 1 o 6 A XX_.).).T.T.U._.|.oXoX^.oX|.|._.`.[.).].T.Q.E.`.).).).).).).",
"Q.T.).`.^.E.~.Q.).).!.R.^.@X! X - / y.8X#X7X) O X 9 T R.).).|.}.}..X..W Y V A Y T ] }.|.).).T.T.).`.).).).).).).",
").).).).E.^.T.~.).T.T.E.|.Q w X h 7XpXgX$X*Xe.4 . $ M @XoXU Y J A Z B 0 7 $ X 7 0 Z Z E _.).`.).).).).).).).).).",
").).).).E.E.T.T.].`.E._.oXI X 1 y.8X4X4X4X,X%Xv , o 7 Z C m 8 * * % . . . O . . . X $ Z [ '._.).).).).).`.`.).).",
"_.`.).`.`.`.E.E.`.|._.{.' 9 X k pXgX3X5X5X,X:Xu.~ i O       . O 1 q i f l x x z d # . 8 C ` _.).`.`.`.`._.E.E._.",
"'.'.`.T.`.).).).'.`._.XXR $ - t.8X3X3XdX3XhX3X,XN.7.g d g g g b | ^ e.u.D.D.B.N.p.^ p # X H }._.`.`.`.E.^.^.^.^.",
" X_.T.~.T.(.(.].).`.).}.J X 4 7XfX4X3X3XgX4X4X,X$X$XC.B.B.M.N.%X&X%X&X$X$X$X$X&X&Xp.i.g @ 7 ` _.).[.T.E.^.^.^.^.",
" X`.!.Y.Q.].].).(.`.'.Q G   y 9XhX<X<X<XdX<XhXuXtXtXrX1X>X=X=X>XtXrX<X6X6X<X<X2XG.k.D.7.# X T  X).T.Y.E.~.E.!.^.",
"(.).T.Q.!.`.).(.'.U.`.Q 0 o y I.H.K.>X1XrXqXL.L.H.F.n.m.n.n.n.m.n.F.H.qXrXtX1XG.z.z.k.u., X R [ _.(.).].T.T.T.!.",
").).Y.!.E.`.{.}.XX}.{.W 6 . r %.5.2.s.j.n.j.s.5.5.3.4.3.,.,.,.,.<.<.2.d.f.f.f.h.1.1.1.q.5 X J ]  X'.(.T.Q.!.Y.!.",
"_.`.T.Y.`._.{ ' G K 9 0 % O r $.4.3.:.3.3.:.=.=.=.=.;.;.=.=.;.;.;.-.-.=.&.O.O.+.*.+.@.u +   9 J  .[ XX|.T.T.T.Q.",
"'.E.!.E.OXV C 9 * X . . . : n x.>.3.;.=.=.*.o.O.o.&.O.O.O.+.o.*.+.O.+.&.*.*.o.&.*.o.@.r < . % 7 w N  .@X_.T.].Y.",
"`.T.|.oX_ 6 $ $   1 ( w.( e.a.iXG.F.d.1.1.1.d.b.c.c.f.f.g.c.c.g.g.j.d.s.5.>.#.#.-.#.@.u y > O .   X m A }.(.Q.T.",
"(.`.E.` B X   @ X.t.sXaXaXpXeXwXwXuXqXK.J.J.qXyXyXyXqX:X;XJ.-X;XS.:XJ.qX>XH.x.V.b.b.v.q.i.^ b a e o $ 6 ` |.T.Q.",
"|.`.`.{ X   , y.jXsXfXwXdXdX<XdX5X:X-X:X&X&X0X0X0XI.%Xa.M.M.M.M.M.C.C.C.A.A.A.A.A.S.S.D.u.p.p.r.P.# ; 6 ] }.E.~.",
"^.R.'.[ X . 1 kXjXsXsX8X8X*X%X%Xp.u.0.9.6.~ c z z f f d s s l s z f s s f z z z v v v ~ 7.0.9.c k # = w XXR.E.!.",
"|.`.'.` $   @ } k k b k j j j p p i q 4 2 > + . . . . . O O O O + O O O O O O O + : , , 2 3 2 : @ % 7 J XX|.T.T.",
"|.`.'.[ & X   X     . . .           o - * $ X $ $ $ % * * * * $ $ X $ X X X X X   X X           * B F ] /.U.E.!.",
"E.W.).{.L H 6 6 & & 7 8 9 9 m M S S D I P S V L A L L I I I P P A A A Y A A A A V V V A A V D D V @X@XOX`.(.].).",
"~.+X`._..X..Y T Y Y Y W W E E {.{._.{. X{.|.|.|.{.|.{.|.|.`.`._.|.oX^.|.|.{.{.|.{.|.}.{.}.}.}.{.|.oX^.U [.).`.(.",
"E.E.Y.`.|._. X'. X{.}.|.|._.E._._.|.|.E._.[.|._._.`.`.E.T.`.T.E.|.E.^._.^.|.E.|.E.|._.E.|.`.|._.^.^.E.[.`.(.).'.",
"E.T.[.T.).`.).(.).).`.T.T.T.T.T.E.E.E._.`.`.(.).`.`.T.`.T.`.E.!.E.E.E.E.E.E.E.E.`.E.E.E.|.E.E.E.T.~.T.[.(.].).`.",
"`.E.E.E.).).).`.).).).).).`.`.`.E.E.E.E.`.`.`.'.`.).`.`.E.E.E.`.`.T.`.`.`.`.`.`.`.`.`.`.E.T.`.E.T.Q.T.T.`.).`.`.",
"`.`._._.`.).`.`.`.).).`.).`.`.`.`.!.T.`.`.`.).).'.`.`.`.E.E.|.E.`.).`.`.`.`.`.).`.`.`.`.`.E.T.E.T.T.T.`.`.`.`._.",
").).`.'.`.`.E.`.`.E.`.T.`.T.).`.T.`.`.T.`.).).).).`.`.|.`._.E.E.`.`.).`.).).`.`.`.`.`.`.E.`.`.E.).).).).'.`.E.E.",
").).).`._.`.|.E._.E.T.`.`.`.E.`.`.T.`.).`.`.`.`.)._.`._.`.E._.'.T.).`.).).).).).`.`.`.`.`.E.`.`.'.`.(.`._.|.E.E.",
").).).).`.`._.E.E.^.E.E.E.E.E.E.T.).).).).).).E.).).`.'.`.).).`.`.(.).).).).).'.`.).`.`.`.).T.`.`.'.).)._.|.`.`.",
").).).).`.`.E.E.E.E.E._.E.E.E.E.`.).).T.).T.`.E.`.`.).).`.).).).).`.).).`.`.).).).).).`.`.).`.).).).).).E.E.`.Q.",
"|.`.).).T.`.).T.T.).).`.`.`.`.`.`.T.T.E.E._.E.!.E.E.E.`.).).`.T.`.E.E.`.E.`.`.E.`.'.`.`.E.E.T.E.`.`.).`.E.^.T.).",
"^.`.`.).T.).T.].T.).'.`.).).).).`.`.E.E.E.!.E.E.T.E.E.E.`.Q.`.`.E.E.`.!.E.E._.E._.`.E.E.`.E.E.`.`.T.).!.`.E.`.`.",
"`._.`.`.`.`.`.).`.).T.`.`.T.`.).`.`.`.T.`.E.E.`.E.`.T.`.`.`.`.T.`.E.`.`.`.`.E.`.`.`.`.`.`.E.`.`.`.`.`.`.`.`.`.`.",
"`.E.`.`.`.T.T.`.`.`.`.`.`.`.`.`.T.].`.`.`.`.`.`.`.`.`.`.`.`.`.E.`.`.`.`.`.`.`.`.`.`.T.`.`.`.`.`.`.`.T.`.`.`.T.`.",
"`.[.E.`.`.`.`.`.`.`.T.`.`.`.`.`.`.`.T.`.`.`.`.`.`.T.`.`.`.`.`.].`.`.`.T.`.`.`.`.`.`.).`.`.`.`.`.T.`.`.`.].`.`.`.",
"`.`.T.`.`.`.`.`.`.`.`.`.`.`.`.T.`.`.`.`.`.`.T.`.`.`.`.`.`.T.`.`.`.`.`.`.`.`.T.`.`.T.`.`.`.`.`.T.`.`.`.`.T.`.`.`.",
"`.`.`.`.T.`.`.`.`.`.`.`.`.`.`.T.`.T.`.`.`.`.`.T.`.`.`.`.`.`.`.`.`.T.`.`.`.`.`.T.`.`.`.`.`.`.`.`.`.`.`.`.`.`.`.`.",
"`.`.`.E.`.`.`.`.T.T.`.`.`.`.`.`.`.`.`.`.`.`.`.`.`.`.T.`.T.`.`.`.`.`.`.`.`.`.`.`.`.`.`.`.T.`.`.`.`.`.`.T.T.`.`.`.",
"T.`.T.`.`.`.`.`.`.].`.`.`.`.`.`.`.`.`.`.`.`.`.`.`.`.].`.`.`.T.`.`.`.`.`.T.].`.`.`.`.`.`.`.`.T.`.`.T.`.`.`.`.`.`.",
"`.`.].`.`.`.`.T.`.`.`.`.`.T.`.`.`.`.`.`.T.T.].`.`.T.E.`.`.`.`.`.`.`.`.`.T.`.`.`.Q.`.`.`.`.`.`.`.`.`.`.`.`.`.`.T."
};
